nameplates/bebop.svg

<svg xmlns="http://www.w3.org/2000/svg" width="1159" height="652" fill="none"><g fill="#fff" clip-path="url(#a)"><path d="M228.286 472.638c0 95.164-23.583 179.362-103.177 179.362h-75.82V455.185H0l24.29-56.603h24.881V0h75.82c79.594 0 103.177 22.406 103.177 104.48v198.348c0 55.306-9.315 88.325-36.672 109.433h36.672v60.377zM167.913 96.344c0-31.132-7.429-37.972-40.445-37.972h-16.745v340.092h14.268c31.13 0 42.922-31.132 42.922-96.344zm0 358.841h-57.19v139.032h16.745c33.016 0 40.445-7.429 40.445-37.971zm184.067 43.514c0 37.972 11.792 57.783 101.998 37.972v59.079c-148.575 29.835-163.55-23.584-163.55-103.183v-37.264h-49.171L264.84 398.7h25.47V202.829c0-79.599 14.975-132.429 163.55-103.184v59.08c-90.206-19.929-101.998 0-101.998 37.972v202.121h90.206v56.603h-90.206v43.514zm335.944-26.061c0 95.164-23.583 124.41-103.177 124.41h-75.82V455.303h-49.171l24.291-56.603h24.88V98.23h75.82c79.594 0 103.177 22.406 103.177 104.481v100.117c0 55.306-9.315 88.325-36.672 109.433h36.672zm-60.373-278.064c0-31.132-7.429-37.971-40.445-37.971h-16.745v241.979h14.268c31.13 0 42.922-31.132 42.922-96.344zm0 260.611h-57.19v83.962h16.745c33.016 0 40.445-7.429 40.445-37.971zm194.916 149.292c-46.695 0-88.909-19.929-88.909-95.754V186.555c0-75.825 42.332-95.754 88.909-95.754 42.332 0 90.206 17.453 90.206 95.754v322.168c0 78.419-47.874 95.754-90.206 95.754m-27.357-90.801c0 26.179 9.315 34.197 27.946 34.197s27.946-7.429 27.946-34.197V181.485c0-27.359-9.905-34.198-27.946-34.198s-27.946 8.136-27.946 34.198zm246.33-58.491V596.93h-61.555V455.185h-49.171l24.291-56.603h24.88V98.23h75.825c79.59 0 103.17 29.835 103.17 124.41v108.254c0 95.164-23.58 124.409-103.17 124.409h-14.27zm0-57.193h16.74c33.02 0 40.45-6.839 40.45-37.971V194.574c0-31.132-7.43-37.971-40.45-37.971h-16.74z"/></g><defs><clipPath id="a"><path fill="#fff" d="M0 0h1159v652H0z"/></clipPath></defs></svg>

<svg width="1159" height="652" viewBox="0 0 1159 652" fill="none" xmlns="http://www.w3.org/2000/svg">
<g clip-path="url(#clip0_22600_205)">
<path d="M228.286 472.638C228.286 567.802 204.703 652 125.109 652H49.289V455.185H0L24.2908 398.582H49.1711V0H124.991C204.585 0 228.168 22.4055 228.168 104.48V302.828C228.168 358.134 218.853 391.153 191.496 412.261H228.168V472.638H228.286ZM167.913 96.3436C167.913 65.2118 160.484 58.3722 127.468 58.3722H110.723V398.464H124.991C156.121 398.464 167.913 367.332 167.913 302.12V96.3436ZM167.913 455.185H110.723V594.217H127.468C160.484 594.217 167.913 586.788 167.913 556.246V455.185Z" fill="white"/>
<path d="M351.98 498.699C351.98 536.671 363.772 556.482 453.978 536.671V595.75C305.403 625.585 290.428 572.166 290.428 492.567V455.303H241.257L264.84 398.7H290.31V202.829C290.31 123.23 305.285 70.4004 453.86 99.6455V158.725C363.654 138.796 351.862 158.725 351.862 196.697V398.818H442.068V455.421H351.862V498.935L351.98 498.699Z" fill="white"/>
<path d="M687.924 472.638C687.924 567.802 664.341 597.048 584.747 597.048H508.927V455.303H459.756L484.047 398.7H508.927V98.2304H584.747C664.341 98.2304 687.924 120.636 687.924 202.711V302.828C687.924 358.134 678.609 391.153 651.252 412.261H687.924V472.638ZM627.551 194.574C627.551 163.442 620.122 156.603 587.106 156.603H570.361V398.582H584.629C615.759 398.582 627.551 367.45 627.551 302.238V194.692V194.574ZM627.551 455.185H570.361V539.147H587.106C620.122 539.147 627.551 531.718 627.551 501.176V455.185Z" fill="white"/>
<path d="M822.467 604.477C775.772 604.477 733.558 584.548 733.558 508.723V186.555C733.558 110.73 775.89 90.8012 822.467 90.8012C864.799 90.8012 912.673 108.254 912.673 186.555V508.723C912.673 587.142 864.799 604.477 822.467 604.477ZM795.11 513.676C795.11 539.855 804.425 547.873 823.056 547.873C841.687 547.873 851.002 540.444 851.002 513.676V181.485C851.002 154.126 841.097 147.287 823.056 147.287C805.015 147.287 795.11 155.423 795.11 181.485V513.558V513.676Z" fill="white"/>
<path d="M1041.44 455.185V596.93H979.885V455.185H930.714L955.005 398.582H979.885V98.2304H1055.71C1135.3 98.2304 1158.88 128.065 1158.88 222.64V330.894C1158.88 426.058 1135.3 455.303 1055.71 455.303H1041.44V455.185ZM1041.44 397.992H1058.18C1091.2 397.992 1098.63 391.153 1098.63 360.021V194.574C1098.63 163.442 1091.2 156.603 1058.18 156.603H1041.44V397.874V397.992Z" fill="white"/>
</g>
<defs>
<clipPath id="clip0_22600_205">
<rect width="1159" height="652" fill="white"/>
</clipPath>
</defs>
</svg>
